src/assets/svg/icons/fa/nuevos/classic/thin/oil-well classic thin.svg

<svg xmlns="http://www.w3.org/2000/svg" viewBox="0 0 576 512"><path d="M430.4 4.707C473-6.729 516.9 18.6 528.3 61.28L569.8 215.8C581.2 258.5 555.9 302.4 513.2 313.8L497.7 317.9C480.7 322.5 463.1 312.4 458.5 295.3L428.6 183.7L80 274V496H130.3L202 285L220.5 280.2L196.1 352H347.9L315.1 255.7L330.7 251.7L413.7 496H568C572.4 496 576 499.6 576 504C576 508.4 572.4 512 568 512H8C3.582 512 0 508.4 0 504C0 499.6 3.582 496 8 496H64V167.1C64 163.6 67.58 159.1 72 159.1C76.42 159.1 80 163.6 80 167.1V257.5L224.1 220.2L264.4 101.4C265.5 98.18 268.6 96 271.1 96C275.4 96 278.5 98.18 279.6 101.4L312.2 197.3L424.5 168.2L392.3 48.04C387.7 30.97 397.8 13.42 414.9 8.847L430.4 4.707zM434.5 20.16L419 24.3C410.5 26.59 405.4 35.36 407.7 43.9L473.1 291.2C476.3 299.7 485.1 304.8 493.6 302.5L509 298.3C543.2 289.2 563.4 254.1 554.3 219.1L512.9 65.42C503.7 31.27 468.6 11.01 434.5 20.16V20.16zM296.6 201.3L272 128.9L242.6 215.4L296.6 201.3zM396.8 496L353.3 368H190.7L147.2 496H396.8z"/></svg>

<svg xmlns="http://www.w3.org/2000/svg" viewBox="0 0 576 512"><!--! Font Awesome Pro 6.4.0 by @fontawesome - https://fontawesome.com License - https://fontawesome.com/license (Commercial License) Copyright 2023 Fonticons, Inc. --><path d="M512.9 65.4c-9.1-34.1-44.2-54.4-78.4-45.3L419 24.3c-8.5 2.3-13.6 11.1-11.3 19.6L474 291.2c2.3 8.5 11.1 13.6 19.6 11.3l15.5-4.1c34.1-9.1 54.4-44.2 45.3-78.4L512.9 65.4zM430.4 4.7c42.7-11.4 86.5 13.9 98 56.6l41.4 154.5c11.4 42.7-13.9 86.5-56.6 98l-15.5 4.1c-17.1 4.6-34.6-5.6-39.2-22.6L428.6 183.7 80 274V496h50.3L202 285l18.5-4.8L196.1 352H347.9l-32.7-96.3 15.5-4L413.7 496H568c4.4 0 8 3.6 8 8s-3.6 8-8 8H72 8c-4.4 0-8-3.6-8-8s3.6-8 8-8H64V168c0-4.4 3.6-8 8-8s8 3.6 8 8v89.5l144.1-37.3 40.4-118.7c1.1-3.2 4.1-5.4 7.6-5.4s6.5 2.2 7.6 5.4l32.6 95.9 112.3-29.1L392.3 48c-4.6-17.1 5.6-34.6 22.6-39.2l15.5-4.1zM296.6 201.3L272 128.9l-29.4 86.5 54.1-14zM396.8 496L353.3 368H190.7L147.2 496H396.8z"/></svg>
